resources/svg/calendar-no-access.svg

<svg xmlns="http://www.w3.org/2000/svg" viewBox="0 0 15 15" fill="currentColor"><path d="M7.5 6C6.11929 6 5 7.11929 5 8.5C5 9.00954 5.15244 9.48349 5.4142 9.8787L8.8787 6.4142C8.48349 6.15244 8.00954 6 7.5 6Z" fill="black"/><path d="M7.5 11C6.99046 11 6.51653 10.8476 6.12131 10.5858L9.58581 7.12131C9.84756 7.51653 10 7.99046 10 8.5C10 9.88071 8.88071 11 7.5 11Z" fill="black"/><path fill-rule="evenodd" clip-rule="evenodd" d="M13.5 2H12V0H11V2H4V0H3V2H1.5C0.671573 2 0 2.67157 0 3.5V13.5C0 14.3284 0.671573 15 1.5 15H13.5C14.3284 15 15 14.3284 15 13.5V3.5C15 2.67157 14.3284 2 13.5 2ZM4 8.5C4 6.567 5.567 5 7.5 5C9.433 5 11 6.567 11 8.5C11 10.433 9.433 12 7.5 12C5.567 12 4 10.433 4 8.5Z" fill="black"/></svg>

<svg xmlns="http://www.w3.org/2000/svg" viewBox="0 0 15 15" fill="currentColor"><path d="M7.5 6a2.5 2.5 0 00-2.086 3.879L8.88 6.414A2.488 2.488 0 007.5 6zm0 5c-.51 0-.983-.152-1.379-.414L9.586 7.12A2.5 2.5 0 017.5 11z" fill="currentColor"/><path fill-rule="evenodd" clip-rule="evenodd" d="M13.5 2H12V0h-1v2H4V0H3v2H1.5A1.5 1.5 0 000 3.5v10A1.5 1.5 0 001.5 15h12a1.5 1.5 0 001.5-1.5v-10A1.5 1.5 0 0013.5 2zM4 8.5a3.5 3.5 0 117 0 3.5 3.5 0 01-7 0z" fill="currentColor"/></svg>
